icons/framework7-logo.svg

<?xml version="1.0" encoding="UTF-8"?>
<svg width="512px" height="275px" viewBox="0 0 512 275" version="1.1" xmlns="http://www.w3.org/2000/svg" xmlns:xlink="http://www.w3.org/1999/xlink">
    <g>
        <circle fill="#FFFFFF" cx="374.692292" cy="137.303571" r="137.303571"></circle>
        <path d="M492.218134,66.2717924 C504.770424,86.9957329 511.995864,111.305856 511.995864,137.303571 C511.995864,213.13424 450.522961,274.607143 374.692292,274.607143 C365.607399,274.607143 356.728587,273.724808 348.136874,272.041156 L492.218134,66.2717924 Z M480.953963,50.3446429 C480.966111,50.3594698 480.978256,50.3742994 480.990398,50.3891315 L407.970651,154.672138 L393.209967,138.049748 L410.345453,119.596148 L397.576221,119.596148 L383.571257,135.001608 L383.571257,96.3643834 L373.6854,96.3643834 L373.6854,158.645283 L383.571257,158.645283 L383.571257,141.59218 L398.482425,158.645283 L405.188624,158.645283 L329.355699,266.945925 C277.704994,248.884734 240.137571,200.828897 237.533163,143.658144 L245.334021,160.622455 L257.691342,132.777291 L270.213428,160.622455 L289.078939,119.596148 L279.028317,119.596148 L270.625339,139.615008 L262.387125,119.596148 L254.066528,119.596148 L245.581167,139.615008 L238.28552,121.524781 C241.356575,94.6835836 252.167416,70.1943966 268.430622,50.3446429 L480.953963,50.3446429 Z M312.55785,118.607562 C309.646999,118.607562 306.928416,119.129311 304.402017,120.172823 C301.875619,121.216335 299.665053,122.671739 297.770255,124.539076 C295.875457,126.406415 294.392593,128.58952 293.321619,131.088457 C292.250646,133.587394 291.715167,136.264788 291.715167,139.120716 C291.715167,141.976644 292.250646,144.654038 293.321619,147.152974 C294.392593,149.651912 295.875457,151.821287 297.770255,153.661164 C299.665053,155.501042 301.875619,156.956445 304.402017,158.027417 C306.928416,159.098391 309.646999,159.633869 312.55785,159.633869 C315.4687,159.633869 318.187283,159.098391 320.713682,158.027417 C323.24008,156.956445 325.450646,155.501042 327.345444,153.661164 C329.240243,151.821287 330.723107,149.651912 331.79408,147.152974 C332.865053,144.654038 333.400532,141.976644 333.400532,139.120716 C333.400532,136.264788 332.865053,133.587394 331.79408,131.088457 C330.723107,128.58952 329.240243,126.406415 327.345444,124.539076 C325.450646,122.671739 323.24008,121.216335 320.713682,120.172823 C318.187283,119.129311 315.4687,118.607562 312.55785,118.607562 Z M360.833785,118.607562 C358.197544,118.607562 355.973248,119.294073 354.160832,120.667116 C352.348415,122.040159 350.975393,123.577943 350.041725,125.280516 L350.041725,119.596148 L340.65016,119.596148 L340.65016,158.645283 L350.536017,158.645283 L350.536017,133.106819 C351.304921,131.843621 352.403339,130.649092 353.831303,129.523196 C355.259268,128.397301 357.126577,127.834362 359.433289,127.834362 C360.312036,127.834362 361.14958,127.916744 361.945944,128.081508 C362.742309,128.246274 363.41509,128.465957 363.964307,128.740566 L367.424357,119.843294 C366.271001,119.403921 365.117662,119.088126 363.964307,118.895899 C362.810951,118.703674 361.767454,118.607562 360.833785,118.607562 Z M312.55785,127.834362 C314.205501,127.834362 315.702095,128.136427 317.047676,128.740566 C318.393258,129.344705 319.532866,130.168518 320.466535,131.21203 C321.400204,132.255542 322.114175,133.450072 322.608471,134.795653 C323.102767,136.141235 323.34991,137.582908 323.34991,139.120716 C323.34991,140.658524 323.102767,142.113927 322.608471,143.486969 C322.114175,144.860012 321.400204,146.054541 320.466535,147.070592 C319.532866,148.086644 318.393258,148.896727 317.047676,149.500866 C315.702095,150.105005 314.205501,150.407069 312.55785,150.407069 C310.910199,150.407069 309.413604,150.105005 308.068023,149.500866 C306.722441,148.896727 305.582833,148.086644 304.649164,147.070592 C303.715495,146.054541 303.001524,144.860012 302.507228,143.486969 C302.012933,142.113927 301.765789,140.658524 301.765789,139.120716 C301.765789,137.582908 302.012933,136.141235 302.507228,134.795653 C303.001524,133.450072 303.715495,132.255542 304.649164,131.21203 C305.582833,130.168518 306.722441,129.344705 308.068023,128.740566 C309.413604,128.136427 310.910199,127.834362 312.55785,127.834362 Z M374.692292,0 C408.252634,0 439.000752,12.0405601 462.852465,32.0375 L286.53212,32.0375 C310.383833,12.0405601 341.131951,0 374.692292,0 Z" fill="#EE350F"></path>
        <path d="M90.8675036,118.607402 C96.3047525,118.607402 100.588581,119.925503 103.719118,122.561745 C106.849655,125.197986 108.4149,128.740383 108.4149,133.189041 L108.4149,158.645123 L99.2704821,158.645123 L99.2704821,153.702195 C98.0072829,155.404767 96.2635449,156.81898 94.0392161,157.944875 C91.8148872,159.07077 89.3297173,159.633709 86.5836321,159.633709 C84.7162942,159.633709 82.9176355,159.345374 81.1876018,158.768696 C79.4575682,158.192018 77.9335137,157.340745 76.6153929,156.21485 C75.297272,155.088955 74.2537753,153.729663 73.4848714,152.136934 C72.7159676,150.544205 72.3315214,148.759276 72.3315214,146.782095 C72.3315214,144.804913 72.7296978,143.006254 73.5260625,141.386064 C74.3224272,139.765874 75.4208448,138.379122 76.8213482,137.225766 C78.2218517,136.07241 79.8694781,135.179946 81.7642768,134.548346 C83.6590756,133.916747 85.7048783,133.600952 87.9017464,133.600952 C89.7141626,133.600952 91.581473,133.834366 93.5037321,134.3012 C95.4259922,134.768034 97.1010784,135.468276 98.5290429,136.401945 L98.5290429,134.177627 C98.5290429,132.914428 98.2544385,131.84347 97.7052214,130.964723 C97.1560044,130.085976 96.4694939,129.385735 95.6456679,128.863979 C94.8218428,128.342222 93.901918,127.971506 92.8858661,127.75182 C91.8698142,127.532133 90.894969,127.422291 89.9613,127.422291 C88.6431791,127.422291 86.9680923,127.641975 84.9359893,128.081348 C82.9038863,128.520722 80.7345115,129.262154 78.4278,130.305666 L75.2148964,122.149834 C77.1920777,121.216165 79.5399454,120.392352 82.2585696,119.67837 C84.977194,118.964388 87.8468099,118.607402 90.8675036,118.607402 Z M204.14295,118.607402 C206.834114,118.607402 209.374204,119.10169 211.763298,120.09028 C214.152392,121.078871 216.239385,122.465623 218.024341,124.250579 C219.809297,126.035534 221.223509,128.177448 222.267021,130.676386 C223.310534,133.175323 223.832282,135.935097 223.832282,138.955791 L223.832282,140.521052 C223.832282,141.180112 223.804821,141.894084 223.7499,142.662988 L194.586621,142.662988 C194.806308,143.596656 195.204485,144.530311 195.781163,145.46398 C196.35784,146.397649 197.126733,147.235193 198.087863,147.976636 C199.048992,148.718079 200.16114,149.335939 201.424339,149.830234 C202.687539,150.324529 204.115481,150.571673 205.708211,150.571673 C207.355862,150.571673 209.14079,150.269608 211.06305,149.66547 C212.985309,149.061331 214.715318,148.045295 216.253125,146.61733 L221.196054,154.031723 C219.603324,155.349844 217.46141,156.613024 214.770246,157.821302 C212.079083,159.029579 209.003514,159.633709 205.543446,159.633709 C202.577675,159.633709 199.8179,159.111961 197.264041,158.068448 C194.710182,157.024936 192.485886,155.569533 190.591088,153.702195 C188.696289,151.834857 187.213425,149.638022 186.142452,147.111623 C185.071478,144.585225 184.536,141.866641 184.536,138.955791 C184.536,136.154784 185.030288,133.518582 186.018879,131.047105 C187.007469,128.575629 188.366761,126.419984 190.096795,124.580107 C191.826828,122.74023 193.900092,121.284827 196.316646,120.213854 C198.733201,119.14288 201.341943,118.607402 204.14295,118.607402 Z M34.1885893,100.977623 L34.1885893,110.369188 L9.88585714,110.369188 L9.88585714,124.456534 L32.5409464,124.456534 L32.5409464,133.848098 L9.88585714,133.848098 L9.88585714,158.645123 L0,158.645123 L0,100.977623 L34.1885893,100.977623 Z M62.4456643,118.607402 C63.3793332,118.607402 64.4228299,118.703513 65.5761857,118.895739 C66.7295415,119.087965 67.8828799,119.40376 69.0362357,119.843134 L65.5761857,128.740405 C65.0269687,128.465797 64.3541879,128.246113 63.5578232,128.081348 C62.7614585,127.916583 61.9239151,127.834202 61.0451679,127.834202 C58.7384563,127.834202 56.8711464,128.397141 55.4431821,129.523036 C54.0152179,130.648931 52.9168003,131.84346 52.1478964,133.106659 L52.1478964,158.645123 L42.2620393,158.645123 L42.2620393,119.595988 L51.6536036,119.595988 L51.6536036,125.280355 C52.5872725,123.577783 53.9602945,122.039998 55.7727107,120.666955 C57.5851269,119.293913 59.8094225,118.607402 62.4456643,118.607402 Z M163.528554,118.607402 C165.505735,118.607402 167.345585,118.950657 169.048157,119.637179 C170.75073,120.3237 172.206133,121.298545 173.414411,122.561745 C174.622689,123.824944 175.570073,125.376459 176.256595,127.216336 C176.943116,129.056213 177.286371,131.156936 177.286371,133.51857 L177.286371,158.645123 L167.400514,158.645123 L167.400514,136.072416 C167.400514,130.580246 165.176218,127.834202 160.727561,127.834202 C158.530693,127.834202 156.814415,128.383411 155.578677,129.481845 C154.342938,130.580279 153.395554,131.706157 152.736493,132.859513 L152.736493,158.645123 L142.850636,158.645123 L142.850636,136.072416 C142.850636,130.580246 140.62634,127.834202 136.177682,127.834202 C133.980814,127.834202 132.264537,128.383411 131.028798,129.481845 C129.79306,130.580279 128.845675,131.706157 128.186614,132.859513 L128.186614,158.645123 L118.300757,158.645123 L118.300757,119.595988 L127.527557,119.595988 L127.527557,125.280355 C128.516147,123.632704 129.971552,122.10865 131.893811,120.708146 C133.81607,119.307643 136.287509,118.607402 139.308204,118.607402 C141.889524,118.607402 144.251121,119.197801 146.393068,120.378618 C148.535015,121.559434 150.12772,123.248252 151.171232,125.44512 C151.610605,124.621294 152.201005,123.797481 152.942448,122.973655 C153.683891,122.14983 154.576355,121.422128 155.619868,120.790529 C156.66338,120.158929 157.844179,119.637181 159.1623,119.225268 C160.480421,118.813355 161.935824,118.607402 163.528554,118.607402 Z M89.9613,140.85058 C89.0825527,140.85058 88.2038187,140.946692 87.3250714,141.138918 C86.4463242,141.331144 85.6362412,141.633209 84.8947982,142.045121 C84.1533553,142.457034 83.5492256,143.019973 83.0823911,143.733955 C82.6155565,144.447937 82.3821429,145.326672 82.3821429,146.370184 C82.3821429,147.413696 82.6018264,148.26497 83.0412,148.92403 C83.4805736,149.583091 84.0435126,150.091109 84.7300339,150.4481 C85.4165553,150.805091 86.1717173,151.052235 86.9955429,151.189539 C87.8193684,151.326843 88.5882607,151.395495 89.3022429,151.395495 C91.6089548,151.395495 93.5037248,150.914937 94.9866107,149.953807 C96.4694966,148.992677 97.6502954,147.962911 98.5290429,146.864477 L98.5290429,142.827752 C97.2658436,142.168691 95.8379011,141.674403 94.2451714,141.344873 C92.6524418,141.015343 91.2244992,140.85058 89.9613,140.85058 Z M204.14295,127.587055 C202.55022,127.587055 201.177198,127.834199 200.023843,128.328495 C198.870487,128.82279 197.895641,129.45438 197.099277,130.223284 C196.302912,130.992188 195.698782,131.843461 195.28687,132.77713 C194.874957,133.710799 194.641543,134.616994 194.586621,135.495741 L213.946425,135.495741 C213.891504,134.671916 213.658089,133.793181 213.246177,132.859513 C212.834264,131.925844 212.230134,131.06084 211.43377,130.264475 C210.637405,129.46811 209.635099,128.82279 208.426821,128.328495 C207.218544,127.834199 205.790601,127.587055 204.14295,127.587055 Z" fill="#EE350F"></path>
    </g>
</svg>

<svg xmlns="http://www.w3.org/2000/svg" viewBox="0 0 511.996 274.607">
  <circle cx="374.692" cy="137.304" r="137.304" fill="#fff"/>
  <path fill="#ee350f" d="M492.218 66.272c12.552 20.724 19.778 45.034 19.778 71.032 0 75.83-61.473 137.303-137.304 137.303a137.99 137.99 0 0 1-26.555-2.566zm-11.264-15.927.036.044-73.02 104.283-14.76-16.622 17.135-18.454h-12.769l-14.005 15.406V96.364h-9.886v62.281h9.886v-17.053l14.911 17.053h6.707l-75.833 108.3c-51.651-18.06-89.218-66.116-91.823-123.287l7.801 16.964 12.357-27.845 12.522 27.845 18.866-41.026h-10.05l-8.404 20.019-8.238-20.019h-8.32l-8.486 20.019-7.295-18.09c3.07-26.841 13.881-51.33 30.145-71.18zm-168.396 68.263c-2.911 0-5.63.521-8.156 1.565-2.526 1.043-4.737 2.499-6.632 4.366a20.355 20.355 0 0 0-4.448 6.55c-1.071 2.498-1.607 5.176-1.607 8.032s.536 5.533 1.607 8.032c1.07 2.499 2.553 4.668 4.448 6.508 1.895 1.84 4.106 3.295 6.632 4.366 2.526 1.071 5.245 1.607 8.156 1.607 2.91 0 5.63-.536 8.156-1.607 2.526-1.07 4.737-2.526 6.631-4.366 1.895-1.84 3.378-4.01 4.45-6.508 1.07-2.499 1.606-5.176 1.606-8.032s-.536-5.534-1.607-8.033a20.355 20.355 0 0 0-4.449-6.549c-1.894-1.867-4.105-3.323-6.631-4.366-2.527-1.044-5.245-1.565-8.156-1.565zm48.276 0c-2.636 0-4.86.686-6.673 2.06-1.813 1.372-3.186 2.91-4.12 4.613v-5.685h-9.39v39.05h9.885v-25.54c.769-1.262 1.867-2.457 3.295-3.583 1.428-1.126 3.296-1.689 5.602-1.689.879 0 1.717.083 2.513.248.796.164 1.47.384 2.018.659l3.46-8.898a18.038 18.038 0 0 0-3.46-.947c-1.153-.192-2.197-.288-3.13-.288zm-48.276 9.226c1.647 0 3.144.302 4.49.907 1.345.604 2.485 1.428 3.419 2.471a11.018 11.018 0 0 1 2.141 3.584c.495 1.345.742 2.787.742 4.325 0 1.538-.247 2.993-.742 4.366-.494 1.373-1.208 2.568-2.141 3.584-.934 1.016-2.074 1.826-3.42 2.43-1.345.604-2.842.906-4.49.906-1.647 0-3.143-.302-4.489-.906-1.346-.604-2.485-1.414-3.419-2.43-.934-1.016-1.647-2.211-2.142-3.584a12.792 12.792 0 0 1-.741-4.366c0-1.538.247-2.98.741-4.325a11.018 11.018 0 0 1 2.142-3.584c.934-1.043 2.073-1.867 3.419-2.471 1.346-.605 2.842-.907 4.49-.907zM374.692 0c33.56 0 64.309 12.04 88.16 32.038h-176.32C310.384 12.04 341.132 0 374.692 0zM90.868 118.607c5.437 0 9.72 1.318 12.851 3.955 3.13 2.636 4.696 6.178 4.696 10.627v25.456H99.27v-4.943c-1.263 1.703-3.006 3.117-5.23 4.243-2.225 1.126-4.71 1.689-7.456 1.689-1.868 0-3.666-.289-5.396-.865-1.73-.577-3.254-1.428-4.573-2.554a12.372 12.372 0 0 1-3.13-4.078c-.769-1.593-1.153-3.378-1.153-5.355 0-1.977.398-3.776 1.194-5.396a12.441 12.441 0 0 1 3.295-4.16c1.4-1.154 3.048-2.046 4.943-2.678 1.895-.631 3.94-.947 6.138-.947 1.812 0 3.68.233 5.602.7 1.922.467 3.597 1.167 5.025 2.1v-2.223c0-1.264-.275-2.335-.824-3.213a6.55 6.55 0 0 0-2.06-2.101 8.447 8.447 0 0 0-2.76-1.112c-1.015-.22-1.99-.33-2.924-.33-1.318 0-2.993.22-5.025.66-2.032.439-4.201 1.18-6.508 2.224l-3.213-8.156c1.977-.934 4.325-1.758 7.044-2.472 2.718-.714 5.588-1.07 8.609-1.07zm113.275 0c2.691 0 5.231.495 7.62 1.483a19.067 19.067 0 0 1 6.261 4.16c1.785 1.786 3.2 3.927 4.243 6.426 1.044 2.5 1.565 5.26 1.565 8.28v1.565c0 .66-.027 1.373-.082 2.142h-29.163c.22.934.617 1.867 1.194 2.801.577.934 1.346 1.771 2.307 2.513.961.741 2.073 1.359 3.336 1.853 1.264.495 2.691.742 4.284.742 1.648 0 3.433-.302 5.355-.907 1.922-.604 3.652-1.62 5.19-3.048l4.943 7.415c-1.593 1.318-3.735 2.581-6.426 3.79-2.69 1.208-5.767 1.812-9.227 1.812-2.965 0-5.725-.522-8.279-1.566-2.554-1.043-4.778-2.498-6.673-4.366-1.895-1.867-3.378-4.064-4.449-6.59-1.07-2.527-1.606-5.245-1.606-8.156 0-2.801.494-5.437 1.483-7.909.988-2.471 2.348-4.627 4.078-6.467 1.73-1.84 3.803-3.295 6.22-4.366 2.416-1.071 5.025-1.607 7.826-1.607zm-169.954-17.63v9.392H9.886v14.088H32.54v9.391H9.886v24.797H0v-57.667zm28.257 17.63c.933 0 1.977.096 3.13.289 1.154.192 2.307.508 3.46.947l-3.46 8.897c-.549-.274-1.222-.494-2.018-.659a12.378 12.378 0 0 0-2.513-.247c-2.307 0-4.174.563-5.602 1.689-1.428 1.126-2.526 2.32-3.295 3.584v25.538h-9.886v-39.049h9.392v5.684c.933-1.702 2.306-3.24 4.119-4.613 1.812-1.373 4.036-2.06 6.673-2.06zm101.083 0c1.977 0 3.817.344 5.52 1.03 1.702.687 3.157 1.662 4.365 2.925 1.209 1.263 2.156 2.814 2.843 4.654.686 1.84 1.03 3.94 1.03 6.303v25.126H167.4v-22.573c0-5.492-2.225-8.238-6.673-8.238-2.197 0-3.914.55-5.15 1.648-1.235 1.098-2.182 2.224-2.842 3.378v25.785h-9.885v-22.573c0-5.492-2.225-8.238-6.673-8.238-2.197 0-3.913.55-5.15 1.648-1.235 1.098-2.182 2.224-2.841 3.378v25.785H118.3v-39.049h9.227v5.684c.988-1.647 2.444-3.171 4.366-4.572 1.922-1.4 4.394-2.1 7.414-2.1 2.582 0 4.943.59 7.085 1.77 2.142 1.181 3.735 2.87 4.778 5.067.44-.824 1.03-1.648 1.771-2.471a11.762 11.762 0 0 1 2.678-2.183c1.043-.632 2.224-1.154 3.542-1.566 1.318-.412 2.774-.618 4.367-.618zM89.96 140.851c-.878 0-1.757.096-2.636.288a8.88 8.88 0 0 0-2.43.906 5.088 5.088 0 0 0-1.813 1.689c-.466.714-.7 1.593-.7 2.636 0 1.044.22 1.895.66 2.554a4.498 4.498 0 0 0 1.688 1.524 7.576 7.576 0 0 0 2.266.742 14.08 14.08 0 0 0 2.306.205c2.307 0 4.202-.48 5.685-1.441 1.482-.961 2.663-1.991 3.542-3.09v-4.036c-1.263-.66-2.691-1.154-4.284-1.483-1.593-.33-3.02-.494-4.284-.494zm114.182-13.264c-1.593 0-2.966.247-4.12.741-1.153.495-2.127 1.126-2.924 1.895-.796.77-1.4 1.62-1.812 2.554-.412.934-.645 1.84-.7 2.719h19.36c-.055-.824-.289-1.703-.7-2.636-.413-.934-1.017-1.8-1.813-2.596-.797-.796-1.799-1.441-3.007-1.936-1.208-.494-2.636-.74-4.284-.74z"/>
</svg>
